!!!COM: Victor Masse/
!!!CNT: Francais
!!!TXO: Francais
!!!OTL: Les goe2lands
!!!LYR: Auguste Brizeux
!!!OPR: Chants Bretons
!!!ENC: Jacob Pegg
!!!YOR: Romantic French Song 1830-1870 -David Tunley, ed.,
!!!YOR: New York: Garland Publishing, Inc., 1995, Vol. 4
!!!ODT: 1853/
!!NB: Vocal melody and text only encoded.
!!NB: First instance of melodic material only encoded.
**kern	**silbe
*clef G2	*
*k[b-]	*
*M4/4	*
=3	=3
2r	.
4r	.
8.r	.
{16c	{Un
=4	=4
8.f	Brick
16g	ap-
8.a	-pa-
16g	-reil-
[4f	-lat
8f]}	|}
16r	.
{16c	{Dans
=5	=5
8.f	un
16a	des
8.cc	ports
16cc	de
[4cc	Nan-
(16cc]	|
32dd	|
32cc	|
8b-)	|
=6	=6
[2a	-tes,
4a]}	|}
8.r	.
{16c	{Et
=7	=7
8.f	des
16g	fem-
8.a	-mes
16g	en
[4f	pleurs
8f]}	|}
16r	.
{16c	{des
=8	=8
8.f	me\-
16a	-res,
8.cc	des
16cc	a-
[4cc	-man-
(16cc]	|
32dd	|
32cc	|
8b-)	|
=9	=9
[4a	-tes
8a]}	|}
8r	.
{12g	{Er
12a	-raient
12b-	dans
6a	les
12g	ro-
=10	=10
[4a	-chers,
8a]}	|}
8r	.
{12g	{tout
12a	le
12b-	long
6a	de
12g	la
=11	=11
[4f	mer;
8f]}	|}
8r	.
{12g	{Puis,
12a	dan-
12b-	-sant
6a	u-
12g	-ne
=12	=12
[4f	ron-
8f]}	-de,}
8r	.
{12g	{El-
12f#	-les
12g	chan-
6a	-taient
12bn	cet
=13	=13
[1cc	air:
=14	=14
*M2/4	*
2cc]}	|}
=15	=15
{8a	{Ce
8a	ma-
8a	-tin,
8a	a\
=16	=16
(bnq	ma-
16a	|
16g#)	|
16a	-re/e
16bn	|
(8cc	hau-
8ee)}	-te,}
=17	=17
{8bn	{Les
8e	jeu-
8bn	-nes
8en	gens
=18	=18
(16bn	du
16dd)	|
(16cc	Croi-
16bn)	|
4a}	-zic}
=19	=19
{8a	{Vont
8a	s'em-
8a	-bar-
8a	-quer
=20	=20
(bnq	sur
16a	|
16g#)	|
(16a	leur
16bn)	|
8cc}	brick;}
{8ee	{Mes
=21	=21
[2dd	soeurs,
=22	=22
6dd]	|
12cc	chan-
(24cc	-tons
48dd	|
48cc)	|
12bn	sur
12a	la
=23	=23
(8a	co^-
8g)	|
[4b-	-te,
=24	=24
2b-]}	|}
=25	=25
*M4/4	*
{4a	{Goe2-
4g	|
2b-	-lands,
=26	=26
4a	goe2-
4f	|
2c}	-lands,}
=27	=27
{4f	{Ra-
4e	-me
4a	-nez~
4g	~nous
=28	=28
4b-	nos
4a	a-
(4dd	-mants,
4cc)}	|}
=29	=29
{4a	{Goe2-
4g	|
2b-	-lands,
=30	=30
4a	goe2-
4f	|
2c}	-lands,}
=31	=31
{4f	{Ra-
4e	-me-
4a	-nez~
4g	~nous
=32	=32
4.b-	nos
8a	a-
2f}	-mants!}
=33	=33
{[4cc	{Goe2-
(6cc]	|
12dd	|
2cc)	-lands,
=34	=34
[4cc	goe2-
(6cc]	|
12dd	|
2cc)}	-lands,}
=35	=35
{12cc#	{Ra-
12dd	-me-
12ee	-nez~
(4ff	~nous
aq)	|
!!preceding note changed to grace note
!!best guess to correct timing
4ccn	nos
4ccn	a-
=36	=36
[2f	-mants!
4f]}	|}
4r	.
*-	*-
